X: 35416
T: Round The Horn
R: reel
M: 4/4
K: Gmajor
|:G2 G2 BAGA|Bd-de d4|cdef e2 g2|a6 ga|
b2 g2 a2 f2|gfed BAGB|A2 d2 BA G2|1 E4- EDEF:|2 E8||
|:e3 f e2 d2|B6 B2|A3 A G2 A2|B2 d2 d4|
g3 a g2 e2|dedc BAGB|A2 d2 BA G2|1 E4- EGBd:|2 E6||

